src/assets/images/logo-spindle.svg

<?xml version="1.0" encoding="UTF-8"?>
<svg width="247px" height="100px" viewBox="0 0 247 100" version="1.1" xmlns="http://www.w3.org/2000/svg" xmlns:xlink="http://www.w3.org/1999/xlink">
    <!-- Generator: Sketch 46.2 (44496) - http://www.bohemiancoding.com/sketch -->
    <defs>
        <polygon id="path-1" points="0.06 99.5967632 0.06 0.216206108 246.096991 0.216206108 246.096991 99.5967632"></polygon>
    </defs>
    <g id="Page-1" stroke="none" stroke-width="1" fill="none" fill-rule="evenodd">
        <g id="Spindle">
            <g id="Group-12">
                <mask id="mask-2" fill="#ffffff">
                    <use xlink:href="#path-1"></use>
                </mask>
                <path d="M93.398,32.73 C96.906,33.342 100.162,31.313 100.669,28.193 C101.175,25.079 98.743,22.052 95.233,21.443 C91.725,20.829 88.469,22.864 87.961,25.976 C87.455,29.096 89.89,32.117 93.398,32.73" id="Fill-9" fill="#f2cc10" mask="url(#mask-2)"></path>
                <path d="M167.946,56.346 C167.533,59.181 166.885,61.756 166.003,64.062 C165.12,66.374 164.08,68.261 162.892,69.734 C161.693,71.202 160.875,71.834 159.529,71.622 C158.178,71.413 157.139,70.495 156.415,68.866 C155.69,67.241 155.25,65.246 155.091,62.881 C155.043,62.148 155.03,61.396 155.03,60.635 C155.035,59.786 155.069,58.917 155.136,58.033 C155.199,57.168 155.281,56.295 155.406,55.402 C155.772,52.779 156.361,51.304 157.196,49.155 C158.024,47 159.088,45.239 160.382,43.875 C161.68,42.51 162.711,41.986 164.37,42.301 C165.514,42.51 166.364,43.347 166.937,44.822 C167.506,46.292 167.899,47.759 168.102,49.23 C168.209,50.077 168.27,50.841 168.292,51.585 C168.295,51.67 168.3,51.752 168.3,51.838 C168.326,53.218 168.206,54.572 167.946,56.346 Z M71.902,57.531 C71.554,60.001 71.056,62.249 70.415,64.276 C69.775,66.305 68.957,67.973 67.967,69.284 C66.973,70.602 65.889,71.151 64.727,70.931 C63.326,70.712 62.157,69.781 61.226,68.136 C60.29,66.493 59.706,64.518 59.473,62.222 C59.24,59.919 59.326,57.451 59.737,54.823 C60.145,52.195 60.875,49.731 61.926,47.43 C62.626,46.114 63.499,44.967 64.55,43.979 C65.6,42.993 66.768,42.554 68.054,42.665 C69.335,42.774 70.297,43.566 70.942,45.046 C71.585,46.527 71.993,48.363 72.169,50.551 C72.341,52.749 72.254,55.071 71.902,57.531 Z M231.91,44.321 C232.779,42.129 233.596,40.891 234.363,40.599 C234.796,40.402 235.203,40.696 235.588,41.473 C235.965,42.254 236.239,43.223 236.408,44.391 C236.571,45.558 236.593,46.7 236.487,47.82 C236.375,48.938 236.101,49.787 235.666,50.374 C235.121,51.152 234.25,51.662 233.052,51.904 C231.854,52.148 230.655,52.27 229.456,52.27 C230.219,49.158 231.034,46.506 231.91,44.321 Z M245.92,69.453 C244.455,65.65 241.06,68.602 241.06,68.602 C239.536,70.059 237.956,71.206 236.321,72.03 C234.687,72.855 233.16,73.075 231.744,72.688 C230.655,72.393 229.814,71.714 229.209,70.643 C228.61,69.571 228.175,68.261 227.903,66.701 C227.629,65.148 227.521,63.4 227.58,61.453 L227.826,59.005 L232.317,58.833 C233.897,58.64 235.446,58.324 236.977,57.887 C238.501,57.451 239.917,56.888 241.224,56.207 C242.534,55.526 243.623,54.657 244.493,53.585 C245.584,52.32 246.046,50.568 245.888,48.331 C245.724,46.095 245.097,43.908 244.006,41.764 C242.915,39.629 241.362,37.751 239.349,36.152 C237.331,34.548 235.012,33.742 232.399,33.742 C229.675,33.742 226.719,34.006 224.488,36.441 C222.25,38.873 220.874,41.932 219.403,45.629 C218.778,47.198 218.244,48.824 217.794,50.491 C215.289,59.716 210.679,68.903 210.679,68.903 C209.532,71.099 208.161,72.678 207.509,72.678 C206.418,72.678 205.681,71.355 205.299,68.7 C204.917,66.05 204.751,61.34 204.809,57.187 C204.866,53.037 205.055,48.509 205.383,43.607 C205.383,43.607 206.085,34.928 206.526,30.375 C206.961,25.828 207.425,23.223 207.919,19.72 C208.406,16.222 208.755,13.871 208.98,12.669 C209.303,11.072 208.837,9.768 207.583,8.768 C206.333,7.769 204.866,7.218 203.173,7.119 C201.485,7.021 199.932,7.447 198.513,8.39 C197.099,9.345 196.387,11.021 196.387,13.417 L194.429,35.777 C194.084,39.839 193.831,43.027 193.653,47.241 C192.842,56.671 186.663,66.514 186.663,66.514 C185.627,68.216 184.623,69.07 183.639,69.07 C182.546,69.07 181.811,67.79 181.432,65.24 C181.045,62.689 180.863,59.414 180.863,55.41 C180.863,51.413 181.026,48.011 181.35,43.307 C181.675,38.608 182.087,29.592 182.579,25.188 C183.066,20.786 183.527,15.963 183.971,12.611 C184.401,9.26 184.731,6.985 184.951,5.781 C185.274,4.183 184.808,2.884 183.562,1.882 C182.302,0.882 180.863,0.33 179.224,0.23 C177.589,0.132 176.063,0.556 174.653,1.508 C173.229,2.457 172.524,4.133 172.524,6.534 C172.524,9.035 172.247,12.734 171.707,17.636 C171.157,22.538 170.667,33.254 170.236,38.955 C168.602,37.155 166.7,36.064 164.513,35.808 C145.625,33.576 142.693,55.263 142.693,55.263 C138.742,67.398 134.254,67.12 134.254,67.12 C132.921,67.161 132.292,64.75 132.266,63.153 C132.052,49.787 135.042,45.906 135.042,45.906 C135.585,44.492 134.95,43.401 134.075,42.635 C133.205,41.878 132.057,41.466 130.642,41.411 C129.226,41.358 127.756,41.63 126.231,42.23 C124.702,42.828 123.507,43.672 122.633,44.764 C121.431,46.396 119.79,49.337 118.647,51.681 C117.5,54.024 116.49,56.663 115.62,59.605 C115.51,58.519 115.595,57.134 115.7,55.44 C115.895,52.358 117.925,40.599 117.925,40.599 C118.14,38.963 117.653,37.765 116.453,37.002 C115.25,36.24 113.862,35.915 112.284,36.021 C110.701,36.128 109.148,36.729 107.626,37.822 C106.097,38.911 105.172,40.546 104.844,42.725 C104.409,44.906 104.667,45.932 104.667,48.656 C104.667,48.815 104.669,48.984 104.669,49.146 C104.449,50.349 103.959,52.089 103.198,54.375 C102.433,56.663 101.618,58.954 100.747,61.24 C99.872,63.529 98.971,65.521 98.046,67.21 C97.12,68.899 96.332,69.745 95.679,69.745 C94.695,69.745 94.068,68.762 93.797,66.802 C93.523,64.838 93.441,62.497 93.55,59.769 C93.66,57.047 93.904,54.212 94.289,51.27 C94.669,48.329 95.552,45.877 95.988,43.915 C96.316,42.17 95.877,40.699 94.681,39.503 C93.481,38.302 92.065,37.598 90.428,37.378 C88.796,37.158 86.804,37.083 85.934,38.52 C84.466,40.948 83.546,43.805 82.99,46.728 C82.143,43.989 80.81,41.591 78.997,39.543 C76.951,37.241 74.107,36.111 70.504,35.765 C48.934,33.68 47.654,49.238 47.654,49.238 C47.637,50.403 47.616,51.611 47.595,52.835 C46.362,50.987 44.419,49.173 41.424,47.634 C38.322,46.021 33.596,44.579 26.972,43.223 C18.246,41.447 15.162,40.635 14.08,40.253 C11.822,39.489 11.131,38.839 10.959,38.635 C11.215,35.66 16.852,31.017 23.622,25.719 C34.647,17.154 39.61,15.979 41.672,16.042 C41.869,16.055 43.597,16.235 43.54,18.153 L43.56,18.153 C43.357,19.036 43.174,20.159 42.943,21.571 C42.644,23.144 43.147,24.743 44.365,26.076 C45.728,27.558 47.143,27.95 48.086,28.016 L48.282,28.026 C49.828,28.072 52.013,27.41 53.598,24.046 C54.476,22.285 54.925,20.697 54.969,19.19 C55.207,11.256 50.344,5.861 42.752,5.627 C35.303,5.4 26.759,8.925 16.628,16.405 C6.844,23.647 0.274,30.332 0.003,39.41 C-0.083,42.375 1.355,46.485 8.718,49.241 L8.97,49.324 C15.02,50.978 19.685,52.106 22.799,52.661 C30.814,54.197 33.959,55.047 35.171,55.482 C37.474,56.327 38.89,57.36 38.866,58.172 C38.771,61.385 36.798,64.125 32.837,66.552 C28.907,68.953 24.942,70.059 20.721,69.935 C18.915,69.887 17.442,69.468 16.261,68.691 C15.061,67.894 14.886,67.213 14.865,66.797 C14.919,66.616 15.002,66.357 15.11,66.022 C15.458,64.968 15.634,64.073 15.659,63.295 C15.741,60.56 13.969,58.592 11.251,58.399 L10.986,58.385 C8.003,58.294 6.694,61.531 6.254,62.62 C5.586,64.323 5.246,65.71 5.209,66.878 C5.125,69.696 6.031,73.778 10.806,77.228 C13.709,79.348 16.877,80.541 20.217,80.776 C20.453,80.791 20.689,80.807 20.927,80.81 L23.328,80.883 C28.653,81.04 34.225,79.051 39.886,74.964 C43.173,72.594 45.617,70.047 47.23,67.346 C47.146,69.891 47.057,72.403 46.958,74.868 C46.782,79.148 46.581,83.09 46.345,86.704 C46.109,90.318 45.877,93.699 45.642,95.892 C45.412,97.206 45.938,98.166 47.219,98.767 C48.503,99.364 49.904,99.645 51.421,99.59 C52.937,99.534 54.368,99.179 55.709,98.519 C57.048,97.866 57.724,96.928 57.724,95.728 C57.724,93.535 57.752,90.127 57.811,86.457 C57.871,82.789 58.012,78.818 58.25,74.546 C58.6,74.868 58.951,75.152 59.298,75.364 C59.651,75.59 60.002,75.806 60.347,76.022 C62.451,77.336 64.55,77.995 66.651,77.995 C69.8,78.217 72.578,77.366 74.968,75.449 C77.358,73.531 79.314,71.041 80.831,67.973 C81.586,66.448 82.21,64.854 82.706,63.194 C82.828,64.184 82.926,64.756 82.926,64.756 C83.148,67.865 83.879,70.589 85.134,72.933 C86.383,75.275 88.481,76.883 91.428,77.751 C93.387,78.295 95.189,78.082 96.825,77.102 C98.454,76.12 99.955,74.73 101.318,72.933 C102.678,71.13 103.875,69.069 104.914,66.72 C105.005,66.504 105.093,66.298 105.188,66.086 C105.264,68.374 105.255,70.362 105.159,72.033 C105.046,73.667 105.589,74.868 106.792,75.63 C107.991,76.39 109.324,76.77 110.796,76.77 C112.265,76.77 113.63,76.422 114.887,75.708 C116.137,75.001 116.874,73.94 117.091,72.519 C117.199,71.211 117.47,69.607 117.911,67.697 C118.343,65.792 118.831,63.968 119.38,62.223 C119.924,60.483 120.495,58.954 121.094,57.645 C121.694,56.339 122.741,55.101 123.286,54.876 C123.507,55.431 123.56,56.71 123.451,58.721 C123.451,58.721 123.24,73.122 132.951,73.825 C134.796,73.955 139.035,72.661 140.859,70.623 C143.016,68.21 144.741,65.134 144.741,65.134 C144.758,65.234 144.771,65.341 144.794,65.445 C144.794,65.445 146.806,78.668 156.628,77.94 C156.628,77.94 165.98,78.525 170.888,66.966 C171.651,69.969 172.712,72.394 174.075,74.243 C175.437,76.093 177.374,77.02 179.881,77.02 C183.26,77.02 186.171,75.82 188.623,73.418 C190.772,71.316 192.562,67.066 193.999,64.465 C194.035,64.766 194.063,65.07 194.101,65.365 C194.649,69.769 195.655,74.701 197.127,77.555 C198.597,80.405 200.805,81.825 203.745,81.825 C206.908,81.825 209.635,80.528 211.92,77.928 C214.21,75.324 214.746,73.703 216.384,70.2 C216.618,69.696 216.837,69.188 217.061,68.675 C217.864,72.011 219.265,73.498 221.286,75.751 C223.461,78.178 226.514,79.4 230.439,79.4 C233.704,79.4 236.672,78.761 239.349,77.5 C239.349,77.5 247.378,73.253 245.92,69.453 L245.92,69.453 Z" id="Fill-11" fill="#f2cc10" mask="url(#mask-2)"></path>
            </g>
        </g>
    </g>
</svg>

<svg xmlns="http://www.w3.org/2000/svg" width="247" height="100" xmlns:xlink="http://www.w3.org/1999/xlink"><defs><path id="a" d="M.06 99.6V.22H246.1V99.6z"/></defs><g fill="none"><g><g><mask id="b"><use xlink:href="#a"/></mask><path fill="#f2cc10" d="M93.4 32.73c3.5.6 6.76-1.42 7.27-4.54.5-3.12-1.93-6.15-5.44-6.76-3.5-.6-6.76 1.42-7.27 4.54-.5 3.12 1.93 6.14 5.44 6.75" mask="url(#b)"/><path fill="#f2cc10" d="M167.95 56.35c-.42 2.83-1.06 5.4-1.95 7.7-.88 2.32-1.92 4.2-3.1 5.68-1.2 1.47-2.03 2.1-3.37 1.9-1.35-.22-2.4-1.13-3.12-2.76-.7-1.63-1.15-3.62-1.3-6-.06-.72-.07-1.47-.07-2.23 0-.85.04-1.72.1-2.6.07-.87.15-1.74.28-2.64.37-2.62.96-4.1 1.8-6.24.82-2.16 1.9-3.92 3.18-5.28 1.3-1.37 2.33-1.9 4-1.58 1.13.2 1.98 1.05 2.56 2.52.57 1.47.96 2.94 1.16 4.4.1.86.17 1.62.2 2.37 0 .07 0 .15 0 .24.03 1.38-.1 2.73-.35 4.5zM71.9 57.53c-.35 2.47-.84 4.72-1.48 6.75-.64 2.03-1.46 3.7-2.45 5-1 1.32-2.08 1.87-3.24 1.65-1.4-.22-2.57-1.15-3.5-2.8-.94-1.64-1.52-3.6-1.76-5.9-.23-2.3-.14-4.78.27-7.4.4-2.63 1.13-5.1 2.2-7.4.7-1.32 1.56-2.46 2.6-3.45 1.06-1 2.23-1.43 3.5-1.3 1.3.1 2.26.9 2.9 2.37.64 1.48 1.05 3.3 1.23 5.5.17 2.2.08 4.52-.27 6.98zm160-13.2c.88-2.2 1.7-3.44 2.46-3.73.44-.2.84.1 1.23.87.37.78.64 1.75.8 2.92.17 1.16.2 2.3.1 3.42-.13 1.12-.4 1.97-.83 2.55-.55.78-1.42 1.3-2.62 1.53-1.2.25-2.4.37-3.6.37.77-3.1 1.58-5.76 2.46-7.95zm14.02 25.12c-1.46-3.8-4.86-.85-4.86-.85-1.52 1.46-3.1 2.6-4.74 3.43-1.63.83-3.16 1.05-4.58.66-1.1-.3-1.93-1-2.53-2.06-.6-1.07-1.02-2.38-1.3-3.94-.27-1.55-.38-3.3-.32-5.25l.25-2.45 4.5-.17c1.57-.2 3.12-.5 4.65-.94 1.52-.45 2.94-1 4.24-1.7 1.3-.67 2.4-1.54 3.27-2.62 1.08-1.26 1.55-3 1.4-5.25-.18-2.23-.8-4.42-1.9-6.57-1.1-2.13-2.64-4-4.65-5.6-2.02-1.6-4.34-2.42-6.95-2.42-2.72 0-5.68.27-7.9 2.7-2.25 2.43-3.63 5.5-5.1 9.2-.62 1.56-1.16 3.18-1.6 4.85-2.5 9.22-7.12 18.4-7.12 18.4-1.15 2.2-2.52 3.78-3.17 3.78-1.08 0-1.82-1.33-2.2-3.98-.38-2.65-.55-7.36-.5-11.5.07-4.16.25-8.7.58-13.6 0 0 .7-8.67 1.15-13.23.43-4.54.9-7.15 1.4-10.65.48-3.5.82-5.85 1.05-7.05.32-1.6-.14-2.9-1.4-3.9-1.25-1-2.7-1.55-4.4-1.65-1.7-.1-3.25.33-4.67 1.27-1.4.95-2.1 2.62-2.1 5.02l-1.97 22.36c-.35 4.06-.6 7.25-.78 11.46-.8 9.43-7 19.27-7 19.27-1.02 1.72-2.03 2.57-3 2.57-1.1 0-1.84-1.28-2.22-3.83-.4-2.55-.57-5.83-.57-9.83s.17-7.4.5-12.1c.3-4.7.73-13.7 1.22-18.1.5-4.4.95-9.24 1.4-12.6.42-3.34.75-5.6.97-6.82.32-1.6-.14-2.9-1.4-3.9-1.25-1-2.7-1.55-4.33-1.65-1.63-.1-3.16.33-4.57 1.28-1.42.96-2.13 2.63-2.13 5.03 0 2.5-.27 6.2-.8 11.1-.56 4.9-1.05 15.62-1.48 21.32-1.64-1.8-3.54-2.9-5.73-3.14-18.88-2.22-21.8 19.46-21.8 19.46-3.96 12.14-8.45 11.86-8.45 11.86-1.33.04-1.96-2.37-1.98-3.97-.22-13.36 2.77-17.24 2.77-17.24.55-1.4-.1-2.5-.97-3.27-.86-.75-2-1.16-3.43-1.22-1.4-.04-2.88.23-4.4.83-1.54.6-2.73 1.44-3.6 2.53-1.2 1.64-2.85 4.58-4 6.92-1.14 2.34-2.15 4.98-3.02 7.92-.1-1.08-.03-2.47.08-4.16.2-3.08 2.22-14.84 2.22-14.84.22-1.64-.27-2.84-1.47-3.6-1.2-.76-2.6-1.1-4.17-.98-1.58.1-3.13.7-4.65 1.8-1.53 1.1-2.46 2.73-2.8 4.9-.42 2.2-.16 3.2-.16 5.94 0 .16 0 .32 0 .5-.22 1.2-.7 2.93-1.47 5.22-.77 2.28-1.58 4.57-2.45 6.86-.88 2.3-1.78 4.28-2.7 5.97-.93 1.7-1.72 2.55-2.37 2.55-1 0-1.6-1-1.88-2.95-.28-1.96-.36-4.3-.25-7.03.1-2.72.35-5.56.74-8.5.37-2.94 1.25-5.4 1.7-7.36.32-1.73-.12-3.2-1.32-4.4-1.2-1.2-2.62-1.9-4.25-2.12-1.63-.22-3.63-.3-4.5 1.14-1.46 2.43-2.38 5.28-2.94 8.2-.86-2.73-2.2-5.13-4-7.18-2.05-2.3-4.9-3.43-8.5-3.77-21.57-2.1-22.85 13.47-22.85 13.47 0 1.16-.03 2.37-.05 3.6-1.24-1.85-3.18-3.67-6.18-5.2-3.1-1.62-7.82-3.06-14.45-4.42-8.72-1.77-11.8-2.6-12.9-2.97-2.25-.76-2.94-1.4-3.1-1.62.24-2.97 5.88-7.6 12.65-12.9 11.03-8.58 16-9.75 18.05-9.7.2.02 1.93.2 1.87 2.12h.02c-.2.9-.4 2-.62 3.42-.3 1.57.2 3.17 1.43 4.5 1.36 1.5 2.77 1.88 3.72 1.95h.18c1.55.05 3.73-.6 5.32-3.97.88-1.77 1.32-3.35 1.37-4.86.24-7.94-4.63-13.34-12.22-13.57-7.45-.23-16 3.3-26.12 10.78C6.83 23.66.27 30.34 0 39.4c-.08 2.98 1.35 7.1 8.72 9.84l.25.08c6.05 1.66 10.7 2.8 13.83 3.34 8 1.54 11.16 2.4 12.37 2.82 2.3.85 3.72 1.88 3.7 2.7-.1 3.2-2.07 5.95-6.03 8.37-3.93 2.4-7.9 3.5-12.12 3.4-1.8-.06-3.28-.48-4.46-1.26-1.2-.8-1.37-1.5-1.4-1.9.06-.18.14-.44.25-.78.36-1.05.53-1.95.56-2.72.08-2.74-1.7-4.7-4.4-4.9l-.27-.02c-3-.1-4.3 3.15-4.75 4.24-.66 1.7-1 3.1-1.04 4.26-.08 2.82.83 6.9 5.6 10.35 2.9 2.12 6.08 3.3 9.42 3.55.23 0 .47.03.7.03l2.4.08c5.33.16 10.9-1.83 16.57-5.92 3.27-2.37 5.72-4.9 7.33-7.6-.08 2.53-.17 5.04-.27 7.5-.18 4.3-.38 8.23-.62 11.84-.23 3.62-.46 7-.7 9.2-.23 1.3.3 2.27 1.58 2.87 1.28.6 2.68.88 4.2.82 1.52-.07 2.95-.42 4.3-1.08 1.33-.65 2-1.6 2-2.8 0-2.2.03-5.6.1-9.26.05-3.67.2-7.64.43-11.9.35.3.7.6 1.05.8.35.23.7.45 1.05.66 2.1 1.32 4.2 1.98 6.3 1.98 3.15.22 5.93-.63 8.32-2.55 2.4-1.92 4.34-4.4 5.86-7.48.76-1.52 1.38-3.12 1.88-4.78.13.98.23 1.56.23 1.56.22 3.1.95 5.83 2.2 8.17 1.25 2.34 3.35 3.95 6.3 4.82 1.96.55 3.76.33 5.4-.65 1.62-.98 3.13-2.37 4.5-4.17 1.35-1.8 2.55-3.86 3.58-6.2.1-.23.2-.43.3-.64.06 2.27.05 4.26-.04 5.93-.1 1.64.43 2.84 1.63 3.6 1.2.76 2.52 1.14 4 1.14 1.47 0 2.83-.35 4.1-1.06 1.24-.7 1.97-1.76 2.2-3.18.1-1.3.37-2.9.8-4.82.44-1.9.93-3.73 1.48-5.48.54-1.74 1.12-3.27 1.7-4.57.6-1.3 1.66-2.55 2.2-2.77.23.55.28 1.83.17 3.84 0 0-.2 14.4 9.5 15.1 1.85.14 6.1-1.16 7.9-3.2 2.17-2.4 3.9-5.5 3.9-5.5 0 .1.02.22.04.32 0 0 2 13.23 11.83 12.5 0 0 9.35.6 14.26-10.97.75 3 1.8 5.42 3.17 7.27 1.37 1.85 3.3 2.78 5.8 2.78 3.4 0 6.3-1.2 8.75-3.6 2.15-2.1 3.94-6.35 5.38-8.95.03.3.06.6.1.9.55 4.4 1.56 9.33 3.03 12.2 1.47 2.84 3.68 4.26 6.62 4.26 3.16 0 5.88-1.3 8.17-3.9 2.3-2.6 2.83-4.23 4.46-7.73.24-.5.46-1 .68-1.53.8 3.34 2.2 4.83 4.23 7.08 2.16 2.43 5.2 3.65 9.14 3.65 3.26 0 6.23-.64 8.9-1.9 0 0 8.04-4.25 6.58-8.05z" mask="url(#b)"/></g></g></g></svg>
